X: 177
T: Jie shunshun
%%abc-version 2.0
%%abcx-abcm2ps-target-version 5.9.1 (29 Sep 2008)
%%abc-creator hum2abc beta
%%abcx-conversion-date 2013/10/02 07:52:29
%%abc-edited-by Helmut Schaffrath
%%humdrum-veritas 1884474866
%%humdrum-veritas-data 1836792148
%%continueall 1
%%barnumbers 0
L: 1/16
M: 2/4
K: D
f2 f e d2 B d [I:setbarnb 1]| 
e2 F2E4 | 
f2 f e d2 B d | 
d2 F2E4 | 
e2 e2 f2 e d | 
A2 B A2< D2 E | 
A2 A B d2 F2 | 
E2 F ED4 |]  



